X:1
T:Title
%%score { ( 1 4 ) | ( 2 3 ) }
L:1/8
Q:1/4=100
M:6/8
K:Bb
V:1 treble nm="Grand Piano"
V:4 treble 
V:2 bass 
V:3 bass 
V:1
 [DF][_D=E][=DF] [_EG]2 [B,D] | [DF]3 .[DF]3 | [DF][_D=E][=DF] [_EG]2 [B,D] | [DF]6 | F2 G AGF | %5
w: H.~E.~Nichol * * * *|||||
 B2 c d2 [Fd] | [^Fd]3 [G_d]3 | [^Fd]6 | d_d=d e2 d | [Ec]3 .G3 | c=Bc d2 c | B6 | AGF AGF | %13
w: ||||||||
[M:5/8] AGF c2 |[M:1/8] B |[M:3/4] [CFA]3 [B,=EG]3 | [A,F]6 | [B,DF][F,B,D] [B,DF] [B,FB]2 [Fc] | %18
w: |||||
 [Fd]3 .[DFB]3 | [B,DF][F,B,D] [B,DF] [B,FB]2 c | d6 | e2 dc =Bc | d2 c [B,FB]2 [CFA] | %23
w: |||||
 [DFG]3 [=Ec]3 | [A,F]6 | [B,DF][F,B,D] [B,DF] [B,FB]2 [Fc] | [Fd]3 .[DFB]3 | [DF]D F B2 [Gc] | %28
w: |||||
 ^F4 z2 | [Ee][Fd] [Gc]B AG | F2 D F2 [FB] | d3- [=Ed-]3 | [Ed]3 c3 | [DB]6 |] %34
w: ||||||
V:2
 [B,,B,][B,,B,][B,,B,] [B,,B,]2 [B,,F,] | [B,,B,]3 .[B,,B,]3 | %2
 [B,,B,][B,,B,][B,,B,] [B,,B,]2 [B,,F,] | [B,,B,]6 | [F,A,E]2 [F,B,E] [F,CE][F,B,E][F,A,E] | %5
 [G,B,D]2 [A,B,F] [B,F]2[K:bass] [B,,F,] | [A,,A,]3 [A,,A,]3 | [D,A,]6 | %8
 [G,=B,F][G,B,F][G,B,F] [G,B,F]2 [G,B,F] | [C,C]3 .[E,CE]3 | %10
 [F,A,E][F,A,E][F,A,E] [^F,A,D]2 [F,A,D] | [G,B,D]6 | [A,DF][A,DF][A,D] [B,DF][B,DF][B,D] | %13
[M:5/8] [=B,DF][B,DF][B,D] [CA]2 |[M:1/8] [CG] |[M:3/4][K:bass] C,3 C,3 | F,2 E, D,2 C, | %17
 B,,B,, B,, D,2 [F,A,] | B,3 .B,,3 | B,,B,, B,, D,2[K:treble] [F,A,F] | [B,F]6 | %21
 [F,A,F]2 [F,B,F][F,F]- [F,_A,F][F,=A,F] | [B,F]2[K:bass] [F,A,F] D,2 C, | B,,3 [C,B,]3 | F,6 | %25
 B,,B,, B,, D,2 [F,A,] | B,3 .B,,3 | B,[K:treble]B, [A,D] [G,DG]2[K:bass] [E,G,] | [D,A,]4 z2 | %29
 [C,C][D,=B,] [E,C][=E,G,_D] [E,A,D][E,_B,D] | [F,B,D]2 [F,B,] [F,B,D]2 [D,B,] | [C,B,]6 | %32
 [F,A,]3 [F,A,E]3 | [B,,B,]6 |] %34
V:3
 x6 | x6 | x6 | x6 | x6 | x5[K:bass] x | x6 | x6 | x6 | x6 | x6 | x6 | x6 |[M:5/8] x5 |[M:1/8] x | %15
[M:3/4][K:bass] x6 | x6 | x6 | x6 | x5[K:treble] x | x6 | z2 z A, z2 | x2[K:bass] x4 | x6 | x6 | %25
 x6 | x6 | x[K:treble] x4[K:bass] x | x6 | x6 | x6 | x6 | x6 | x6 |] %34
V:4
 x6 | x6 | x6 | x6 | x6 | x6 | x6 | x6 | x6 | x6 | x6 | x6 | x6 |[M:5/8] x5 |[M:1/8] x | %15
[M:3/4] x6 | x6 | x6 | x6 | x6 | x6 | x6 | x6 | x6 | x6 | x6 | x6 | x6 | d3- [G,=B,=Fd]3 | x6 | %30
 x6 | =E4 z2 | x6 | x6 |] %34

